X:1
T:Sonatina
T:Sonatina
T:Op. 34, No. 1
T:Johann Anton André
T:Public Domain (PianoXML typeset)
C:Johann Anton André
Z:Public Domain (PianoXML typeset)
%%score { ( 1 3 ) | 2 }
L:1/8
Q:1/4=114
M:2/2
K:C
V:1 treble nm="Piano" snm="Pno."
V:3 treble 
V:2 bass 
V:1
"^Moderato ma con moto" (G2 c2 B2 c2 | d4 f4 | e2 c2 d2 B2 | c4 G4) | (e2 B2 c2 A2 | d2 A2 B4 | %6
 A2)!<(! ([Ac]2 [GB]2 [^FA]2)!<)! |!>(! ([^FA]4 G2)!>)! z2 :: (G2 d2 c2 d2 | e4 c4 | %10
"_cresc." G2) (e2 d2 e2 | f4 d4 | G2)!<(! (!>!g4 f2- | f2 e4 d2!<)! |"_dim." c2 B2 A2 d2 | %15
 !>!cBAG ^FGAG) |"_dolce" (G2 c2 B2 c2 | d4 f4 | e2 c2 B2 c2 | d4 f4) | (e2"_cresc." c2 f2 c2 | %21
 ^f2 d2 g3 (=f) | e2) ([df]2 [ce]2) [Fd]2 |!>(! ([Fd]4 [Ec]2)!>)! z2 :| %24
[M:2/4]"^Rondo"[Q:1/4=116]"^Allegretto"!p! (cB/c/ | .d).d (B/c/d/B/ | c.G)!<(! (cB/c/ | %27
 .d).[Ac] .[GB].[^FA]!<)! | G2!f! (cB/c/ | .d).d (B/c/d/B/ | c.G)!<(! (c/d/.e/).c/!<)! | %31
 .A.[df] .[ce].[Bd] | c2 :: .[ce].[ce] | !>![Bd]2 .[CE].[CE] | !>![B,D]2 .[ce].[ce] | %36
 .[Bd].[Bd] .[Ac].[Ac] | [GB]2 .[GA].[GA] | B(c .B)A | G2!<(! (B/c/d/e/!<)! | .f).[df] .[ce].[ce] | %41
 [Bd]2!<(! (B,/C/D/E/!<)! | .F).[DF] .[CE].[CE] | [B,D]2 z2 | (F/E/D/C/ D) z | %45
 (!>!f/e/d/c/!<(! B/c/d/e/ | f/e/f/e/ f/e/f/e/!<)! | .f) z!p! .d z | !>!!fermata!B2 (cB/c/ | %49
 .d).d (B/c/d/B/ | c.G)!<(! (cB/c/ | .d).[Ac] .[GB].[^FA]!<)! | G2!f! (cB/c/ | %53
 .d).d!<(! (B/c/d/B/!<)! | c.G) (c/d/.e/).c/ | .A.[df] .[ce].[Bd] | c2 :|!pp! (c/d/e/c/ | %58
 .G).G (c/d/e/c/ | .G).G!f! (c/d/.e/).c/ | .A.[df] .[ce].[FBd] | [Ec]2 |] %62
V:2
 z2 (E,2 D,2 C,2 | B,,2 D,2 B,,2 G,,2 | C,2 E,2 F,2 G,2 | E,2 G,2 E,2 C,2) | z2 (^G,2 A,2 =G,2 | %5
 ^F,4 G,2 E,2 | C,2 A,,2 D,2 D,,2 | G,,2 D,,2 G,,,2) z2 :: z2 (B,2 A,2 B,2 | C2 G,2 E2 G,2) | %10
 z2 C2 B,2 C2 | D2 G,2 B,2 G,2 | z2 E2 G,2 D2 | G,2 C2 G,2 B,2 | A,4 D,4 | G,4 z4 | %16
 z2 (E,G, D,G,C,G, | B,,G,D,G, B,,G,D,G, | C,G,E,G, D,G,C,G, | B,,G,D,G, B,,G,D,G,) | %20
 (C,C_B,C A,CA,C | D,DCD =B,DB,D | C2) (F,2 G,2 G,,2 | C,2 G,,2 C,,2) z2 :|[M:2/4][K:treble] (EG | %25
 FG DG | E2) (EC | B,).C .D.D |[K:bass] (G,/F,/E,/D,/ E,/G,/E,/G,/ | F,/G,/F,/G,/ D,/G,/D,/G,/ | %30
 E,/G,/E,/G,/ C,/B,,/.A,,/).C,/ | .F,.D, .G,.G,, | C,2 :: (C/D/E/F/ | .G).G, (C,/D,/E,/F,/ | %35
 .G,).G,, (C,/D,/E,/^F,/ | G,/A,/B,/C/ .D).^D | !>!E2 (^C/D/E/C/ | .D)(E .D).D, | %39
 G,2 (G,/A,/B,/C/ | .D).B, .C.C, | !>!G,2 z2 | z .B,, .C,.C,, | !>!G,,2 (G,,/A,,/B,,/C,/ | %44
 .D,) z[K:treble] (G,/A,/B,/C/ | D) z (G/A/B/c/ | d/^c/d/c/ d/c/d/c/ | .d) z .B z | %48
 !>!!fermata!G2 (EG | FG DG | E2) (EC | B,).C .D.D | (G,/=F,/E,/D,/ E,/G,/E,/G,/ | %53
 F,/G,/F,/G,/ D,/G,/D,/G,/ | E,/G,/E,/G,/ E,/D,/.C,/).E,/ | .F,.D, .G,.G,, | C,2 :| z2 | %58
 .[B,F].[B,F] .[CE] z | .[B,,F,].[B,,F,] (E,/D,/.C,/).E,/ | .F,.D, .G,.G,, | C,2 |] %62
V:3
 x8 | x8 | x8 | x8 | x8 | x8 | x8 | x8 :: x8 | x8 | x8 | x8 | x8 | x8 | x8 | x8 | x8 | x8 | x8 | %19
 x8 | x8 | x8 | x8 | x8 :|[M:2/4] x2 | x4 | x4 | x4 | x4 | x4 | x4 | x4 | x2 :: x2 | x4 | x4 | x4 | %37
 x4 | G G2 ^F | x4 | x4 | x4 | x4 | x4 | x4 | x4 | x4 | x4 | x4 | x4 | x4 | x4 | x4 | x4 | x4 | %55
 x4 | x2 :| x2 | x4 | x4 | x4 | x2 |] %62

